mimes/32/text-css.svg

<?xml version="1.0" encoding="UTF-8" standalone="no"?>
<svg
   xmlns:dc="http://purl.org/dc/elements/1.1/"
   xmlns:cc="http://creativecommons.org/ns#"
   xmlns:rdf="http://www.w3.org/1999/02/22-rdf-syntax-ns#"
   xmlns:svg="http://www.w3.org/2000/svg"
   xmlns="http://www.w3.org/2000/svg"
   xmlns:xlink="http://www.w3.org/1999/xlink"
   xmlns:sodipodi="http://sodipodi.sourceforge.net/DTD/sodipodi-0.dtd"
   xmlns:inkscape="http://www.inkscape.org/namespaces/inkscape"
   version="1.1"
   width="32"
   height="32"
   id="svg3182"
   inkscape:version="0.91 r13725"
   sodipodi:docname="text-css.svg">
  <sodipodi:namedview
     pagecolor="#ffffff"
     bordercolor="#666666"
     borderopacity="1"
     objecttolerance="10"
     gridtolerance="10"
     guidetolerance="10"
     inkscape:pageopacity="0"
     inkscape:pageshadow="2"
     inkscape:window-width="640"
     inkscape:window-height="480"
     id="namedview4653" />
  <defs
     id="defs3184">
    <linearGradient
       id="linearGradient3977">
      <stop
         id="stop3979"
         style="stop-color:#ffffff;stop-opacity:1"
         offset="0" />
      <stop
         id="stop3981"
         style="stop-color:#ffffff;stop-opacity:0.23529412"
         offset="0.01187616" />
      <stop
         id="stop3983"
         style="stop-color:#ffffff;stop-opacity:0.15686275"
         offset="0.99133235" />
      <stop
         id="stop3985"
         style="stop-color:#ffffff;stop-opacity:0.39215687"
         offset="1" />
    </linearGradient>
    <linearGradient
       id="linearGradient3600-4">
      <stop
         id="stop3602-7"
         style="stop-color:#f4f4f4;stop-opacity:1"
         offset="0" />
      <stop
         id="stop3604-6"
         style="stop-color:#dbdbdb;stop-opacity:1"
         offset="1" />
    </linearGradient>
    <linearGradient
       id="linearGradient5060">
      <stop
         id="stop5062"
         style="stop-color:#000000;stop-opacity:1"
         offset="0" />
      <stop
         id="stop5064"
         style="stop-color:#000000;stop-opacity:0"
         offset="1" />
    </linearGradient>
    <linearGradient
       id="linearGradient5048">
      <stop
         id="stop5050"
         style="stop-color:#000000;stop-opacity:0"
         offset="0" />
      <stop
         id="stop5056"
         style="stop-color:#000000;stop-opacity:1"
         offset="0.5" />
      <stop
         id="stop5052"
         style="stop-color:#000000;stop-opacity:0"
         offset="1" />
    </linearGradient>
    <linearGradient
       x1="23.99999"
       y1="6.1856723"
       x2="23.99999"
       y2="41.757225"
       id="linearGradient3013"
       xlink:href="#linearGradient3977"
       gradientUnits="userSpaceOnUse"
       gradientTransform="matrix(0.56756757,0,0,0.72972971,2.378382,-2.5135063)" />
    <linearGradient
       x1="25.132275"
       y1="0.98520643"
       x2="25.132275"
       y2="47.013336"
       id="linearGradient3016"
       xlink:href="#linearGradient3600-4"
       gradientUnits="userSpaceOnUse"
       gradientTransform="matrix(0.62856997,0,0,0.60839392,0.91431981,-0.5347905)" />
    <radialGradient
       cx="605.71429"
       cy="486.64789"
       r="117.14286"
       fx="605.71429"
       fy="486.64789"
       id="radialGradient3021"
       xlink:href="#linearGradient5060"
       gradientUnits="userSpaceOnUse"
       gradientTransform="matrix(0.01566318,0,0,0.00823529,17.610433,25.980565)" />
    <radialGradient
       cx="605.71429"
       cy="486.64789"
       r="117.14286"
       fx="605.71429"
       fy="486.64789"
       id="radialGradient3024"
       xlink:href="#linearGradient5060"
       gradientUnits="userSpaceOnUse"
       gradientTransform="matrix(-0.01566318,0,0,0.00823529,14.389566,25.980565)" />
    <linearGradient
       x1="302.85715"
       y1="366.64789"
       x2="302.85715"
       y2="609.50507"
       id="linearGradient3027"
       xlink:href="#linearGradient5048"
       gradientUnits="userSpaceOnUse"
       gradientTransform="matrix(0.04576928,0,0,0.00823529,-0.5423243,25.980548)" />
    <linearGradient
       id="linearGradient3104-6">
      <stop
         id="stop3106-3"
         style="stop-color:#000000;stop-opacity:0.31782946"
         offset="0" />
      <stop
         id="stop3108-9"
         style="stop-color:#000000;stop-opacity:0.24031007"
         offset="1" />
    </linearGradient>
    <linearGradient
       y2="2.9062471"
       x2="-51.786404"
       y1="50.786446"
       x1="-51.786404"
       gradientTransform="matrix(0.53064143,0,0,0.58970049,39.269602,-1.7919058)"
       gradientUnits="userSpaceOnUse"
       id="linearGradient3047"
       xlink:href="#linearGradient3104-6" />
  </defs>
  <metadata
     id="metadata3187">
    <rdf:RDF>
      <cc:Work
         rdf:about="">
        <dc:format>image/svg+xml</dc:format>
        <dc:type
           rdf:resource="http://purl.org/dc/dcmitype/StillImage" />
        <dc:title />
      </cc:Work>
    </rdf:RDF>
  </metadata>
  <rect
     width="22.100021"
     height="2"
     x="4.9499893"
     y="29"
     id="rect2879"
     style="opacity:0.15;fill:url(#linearGradient3027);fill-opacity:1;fill-rule:nonzero;stroke:none;stroke-width:1;marker:none;visibility:visible;display:inline;overflow:visible" />
  <path
     d="m 4.9499887,29.000086 c 0,0 0,1.99989 0,1.99989 -0.806615,0.0038 -1.950002,-0.448074 -1.950002,-1.000074 0,-0.552 0.900121,-0.999816 1.950002,-0.999816 z"
     id="path2881"
     style="opacity:0.15;fill:url(#radialGradient3024);fill-opacity:1;fill-rule:nonzero;stroke:none;stroke-width:1;marker:none;visibility:visible;display:inline;overflow:visible" />
  <path
     d="m 27.050011,29.000086 c 0,0 0,1.99989 0,1.99989 0.806614,0.0038 1.950002,-0.448074 1.950002,-1.000074 0,-0.552 -0.900122,-0.999816 -1.950002,-0.999816 z"
     id="path2883"
     style="opacity:0.15;fill:url(#radialGradient3021);fill-opacity:1;fill-rule:nonzero;stroke:none;stroke-width:1;marker:none;visibility:visible;display:inline;overflow:visible" />
  <path
     d="m 5,1 c 5.041316,0 21.999973,0.00179 21.999973,0.00179 L 27,29 C 27,29 12.333334,29 5,29 5,19.666667 5,10.333336 5,1.0000041 z"
     id="path4160-3"
     style="fill:url(#linearGradient3016);fill-opacity:1;stroke:none;display:inline" />
  <path
     d="m 26.5,28.5 -21,0 0,-27 21,0 z"
     id="rect6741-1"
     style="fill:none;stroke:url(#linearGradient3013);stroke-width:1;stroke-linecap:round;stroke-linejoin:miter;stroke-miterlimit:4;stroke-opacity:1;stroke-dasharray:none;stroke-dashoffset:0" />
  <path
     style="font-size:19px;font-style:normal;font-variant:normal;font-weight:600;font-stretch:normal;text-align:start;line-height:125%;letter-spacing:0px;word-spacing:0px;writing-mode:lr-tb;text-anchor:start;color:#000000;fill:#ffffff;fill-opacity:1;fill-rule:nonzero;stroke:none;marker:none;visibility:visible;display:inline;overflow:visible;enable-background:accumulate;font-family:Open Sans;-inkscape-font-specification:Open Sans Semi-Bold;opacity:0.40000000000000002"
     d="m 14,11.96875 c -0.89872,9e-6 -1.892324,0.160004 -2.34375,0.4375 C 11.20896,12.680011 11,13.102499 11,13.6875 l 0,1.28125 c 0,0.348759 -0.16416,0.577502 -0.4375,0.75 C 10.293297,15.887506 9.5591098,16.000004 9,16 l 0,1 c 1.101651,2e-6 2,0.364993 2,1.0625 l 0,1.09375 c 0,0.641256 0.2067,1.121244 0.625,1.40625 C 12.047435,20.851251 13.043299,20.992497 14,21 l 0,-1.03125 c -0.476282,-0.0075 -1.476285,-0.0925 -1.6875,-0.25 C 12.101277,19.561249 12,19.338753 12,19.03125 l 0,-1.1875 C 12,17.536949 11.885913,16.635005 10.9375,16.5 l 0,-0.0625 C 11.885913,16.291252 12,15.56398 12,15.125 l 0,-1.1875 c 0,-0.307498 0.101283,-0.502491 0.3125,-0.65625 C 12.527857,13.123755 13.52786,13.018757 14,13 l 0,-1.03125 z m 4,0 L 18,13 c 0.47214,0.01876 1.472143,0.123755 1.6875,0.28125 C 19.898717,13.435009 20,13.630002 20,13.9375 l 0,1.1875 c 0,0.43898 0.114087,1.166252 1.0625,1.3125 l 0,0.0625 C 20.114087,16.635005 20,17.536949 20,17.84375 l 0,1.1875 c 0,0.307503 -0.101277,0.529999 -0.3125,0.6875 -0.211215,0.157499 -1.211218,0.2425 -1.6875,0.25 L 18,21 c 0.956701,-0.0075 1.952565,-0.148749 2.375,-0.4375 C 20.7933,20.277494 21,19.797506 21,19.15625 L 21,18.0625 C 21,17.364993 21.898349,17.000002 23,17 l 0,-1 c -0.55911,4e-6 -1.293297,-0.112494 -1.5625,-0.28125 C 21.16416,15.546252 21,15.317509 21,14.96875 L 21,13.6875 C 21,13.102499 20.79104,12.680011 20.34375,12.40625 19.892324,12.128754 18.89872,11.968759 18,11.96875 z"
     id="path3826" />
  <path
     style="fill:none;stroke:url(#linearGradient3047);stroke-width:0.9999218;stroke-linecap:butt;stroke-linejoin:round;stroke-miterlimit:4;stroke-opacity:1;stroke-dasharray:none;stroke-dashoffset:0;display:inline"
     id="path4160-6-1"
     d="m 4.4999542,0.499957 c 5.2704806,0 23.0000548,0.00197 23.0000548,0.00197 l 2.4e-5,28.998112 c 0,0 -15.333386,0 -23.0000788,0 0,-9.666722 0,-19.333346 0,-28.9999553 z" />
  <path
     style="font-size:19px;font-style:normal;font-variant:normal;font-weight:600;font-stretch:normal;text-align:start;line-height:125%;letter-spacing:0px;word-spacing:0px;writing-mode:lr-tb;text-anchor:start;color:#000000;fill:#999999;fill-opacity:1;fill-rule:nonzero;stroke:none;marker:none;visibility:visible;display:inline;overflow:visible;enable-background:accumulate;font-family:Open Sans;-inkscape-font-specification:Open Sans Semi-Bold"
     d="m 14,10.96875 c -0.89872,9e-6 -1.892324,0.160004 -2.34375,0.4375 C 11.20896,11.680011 11,12.102499 11,12.6875 l 0,1.28125 c 0,0.348759 -0.16416,0.577502 -0.4375,0.75 C 10.293297,14.887506 9.5591098,15.000004 9,15 l 0,1 c 1.101651,2e-6 2,0.364993 2,1.0625 l 0,1.09375 c 0,0.641256 0.2067,1.121244 0.625,1.40625 C 12.047435,19.851251 13.043299,19.992497 14,20 l 0,-1.03125 c -0.476282,-0.0075 -1.476285,-0.0925 -1.6875,-0.25 C 12.101277,18.561249 12,18.338753 12,18.03125 l 0,-1.1875 C 12,16.536949 11.885913,15.635005 10.9375,15.5 l 0,-0.0625 C 11.885913,15.291252 12,14.56398 12,14.125 l 0,-1.1875 c 0,-0.307498 0.101283,-0.502491 0.3125,-0.65625 C 12.527857,12.123755 13.52786,12.018757 14,12 l 0,-1.03125 z m 4,0 L 18,12 c 0.47214,0.01876 1.472143,0.123755 1.6875,0.28125 C 19.898717,12.435009 20,12.630002 20,12.9375 l 0,1.1875 c 0,0.43898 0.114087,1.166252 1.0625,1.3125 l 0,0.0625 C 20.114087,15.635005 20,16.536949 20,16.84375 l 0,1.1875 c 0,0.307503 -0.101277,0.529999 -0.3125,0.6875 -0.211215,0.157499 -1.211218,0.2425 -1.6875,0.25 L 18,20 c 0.956701,-0.0075 1.952565,-0.148749 2.375,-0.4375 C 20.7933,19.277494 21,18.797506 21,18.15625 L 21,17.0625 C 21,16.364993 21.898349,16.000002 23,16 l 0,-1 c -0.55911,4e-6 -1.293297,-0.112494 -1.5625,-0.28125 C 21.16416,14.546252 21,14.317509 21,13.96875 L 21,12.6875 C 21,12.102499 20.79104,11.680011 20.34375,11.40625 19.892324,11.128754 18.89872,10.968759 18,10.96875 z"
     id="path3826-5" />
</svg>

<svg xmlns="http://www.w3.org/2000/svg" xmlns:xlink="http://www.w3.org/1999/xlink" viewBox="0 0 32 32"><defs><linearGradient id="a"><stop offset="0" stop-color="#fff"/><stop offset=".012" stop-color="#fff" stop-opacity=".235"/><stop offset=".991" stop-color="#fff" stop-opacity=".157"/><stop offset="1" stop-color="#fff" stop-opacity=".392"/></linearGradient><linearGradient id="b"><stop offset="0" stop-color="#f4f4f4"/><stop offset="1" stop-color="#dbdbdb"/></linearGradient><linearGradient id="c"><stop offset="0"/><stop offset="1" stop-opacity="0"/></linearGradient><linearGradient id="d"><stop offset="0" stop-opacity="0"/><stop offset=".5"/><stop offset="1" stop-opacity="0"/></linearGradient><linearGradient x1="24" y1="6.186" x2="24" y2="41.757" id="j" xlink:href="#a" gradientUnits="userSpaceOnUse" gradientTransform="matrix(.56757 0 0 .72973 2.378 -2.514)"/><linearGradient x1="25.132" y1=".985" x2="25.132" y2="47.013" id="i" xlink:href="#b" gradientUnits="userSpaceOnUse" gradientTransform="matrix(.62857 0 0 .6084 .914 -.535)"/><radialGradient cx="605.714" cy="486.648" r="117.143" fx="605.714" fy="486.648" id="h" xlink:href="#c" gradientUnits="userSpaceOnUse" gradientTransform="matrix(.01566 0 0 .00824 17.61 25.98)"/><radialGradient cx="605.714" cy="486.648" r="117.143" fx="605.714" fy="486.648" id="g" xlink:href="#c" gradientUnits="userSpaceOnUse" gradientTransform="matrix(-.01566 0 0 .00824 14.39 25.98)"/><linearGradient x1="302.857" y1="366.648" x2="302.857" y2="609.505" id="f" xlink:href="#d" gradientUnits="userSpaceOnUse" gradientTransform="matrix(.04577 0 0 .00824 -.542 25.98)"/><linearGradient id="e"><stop offset="0" stop-opacity=".318"/><stop offset="1" stop-opacity=".24"/></linearGradient><linearGradient y2="2.906" x2="-51.786" y1="50.786" x1="-51.786" gradientTransform="matrix(.53064 0 0 .5897 39.27 -1.792)" gradientUnits="userSpaceOnUse" id="k" xlink:href="#e"/></defs><path opacity=".15" fill="url(#f)" overflow="visible" d="M4.95 29h22.1v2H4.95z"/><path d="M4.95 29v2c-.807.004-1.95-.448-1.95-1s.9-1 1.95-1z" opacity=".15" fill="url(#g)" overflow="visible"/><path d="M27.05 29v2c.807.004 1.95-.448 1.95-1s-.9-1-1.95-1z" opacity=".15" fill="url(#h)" overflow="visible"/><path d="M5 1l22 .002V29H5V1z" fill="url(#i)"/><path d="M26.5 28.5h-21v-27h21z" fill="none" stroke="url(#j)" stroke-linecap="round"/><path style="text-align:start;line-height:125%;-inkscape-font-specification:Open Sans Semi-Bold" d="M14 11.97c-.9 0-1.892.16-2.344.436-.447.274-.656.696-.656 1.28v1.283c0 .347-.164.575-.438.75-.27.167-1.003.28-1.562.28v1c1.102 0 2 .364 2 1.062v1.093c0 .642.207 1.12.625 1.407.422.288 1.418.43 2.375.437v-1.03c-.476-.01-1.476-.095-1.688-.25-.21-.16-.312-.38-.312-.69v-1.187c0-.307-.114-1.21-1.063-1.344v-.064c.95-.146 1.063-.873 1.063-1.312v-1.188c0-.307.1-.502.313-.656.215-.156 1.215-.26 1.687-.28v-1.03zm4 0V13c.472.02 1.472.124 1.688.28.21.155.312.35.312.658v1.187c0 .44.114 1.166 1.063 1.313v.062c-.95.135-1.063 1.037-1.063 1.344v1.187c0 .31-.1.53-.313.69-.21.157-1.21.24-1.687.25V21c.957-.007 1.953-.15 2.375-.438.418-.285.625-.764.625-1.406v-1.093c0-.698.898-1.063 2-1.063v-1c-.56 0-1.293-.112-1.563-.28-.273-.174-.437-.402-.437-.75v-1.283c0-.585-.21-1.007-.656-1.28-.452-.278-1.445-.438-2.344-.438z" font-size="19" font-weight="600" letter-spacing="0" word-spacing="0" color="#000" fill="#fff" overflow="visible" font-family="Open Sans" opacity=".4"/><path d="M4.5.5l23 .002V29.5h-23V.5z" fill="none" stroke="url(#k)" stroke-linejoin="round"/><path style="text-align:start;line-height:125%;-inkscape-font-specification:Open Sans Semi-Bold" d="M14 10.97c-.9 0-1.892.16-2.344.436-.447.274-.656.696-.656 1.28v1.283c0 .347-.164.575-.438.75-.27.167-1.003.28-1.562.28v1c1.102 0 2 .364 2 1.062v1.093c0 .642.207 1.12.625 1.407.422.288 1.418.43 2.375.437v-1.03c-.476-.01-1.476-.095-1.688-.25-.21-.16-.312-.38-.312-.69v-1.187c0-.307-.114-1.21-1.063-1.344v-.064c.95-.146 1.063-.873 1.063-1.312v-1.188c0-.307.1-.502.313-.656.215-.156 1.215-.26 1.687-.28v-1.03zm4 0V12c.472.02 1.472.124 1.688.28.21.155.312.35.312.658v1.187c0 .44.114 1.166 1.063 1.313v.062c-.95.135-1.063 1.037-1.063 1.344v1.187c0 .31-.1.53-.313.69-.21.157-1.21.24-1.687.25V20c.957-.007 1.953-.15 2.375-.438.418-.285.625-.764.625-1.406v-1.093c0-.698.898-1.063 2-1.063v-1c-.56 0-1.293-.112-1.563-.28-.273-.174-.437-.402-.437-.75v-1.283c0-.585-.21-1.007-.656-1.28-.452-.278-1.445-.438-2.344-.438z" font-size="19" font-weight="600" letter-spacing="0" word-spacing="0" color="#000" fill="#999" overflow="visible" font-family="Open Sans"/></svg>
